X: 12768
T: Father Tom's Wager
R: jig
M: 6/8
K: Gmajor
dge dBG|AEF GDB|GBD GBd|cBc AA/B/c|
dge dBG|AEF GDB|GBD GB/c/d|cAF G2:|
Bdg bag|fed cAF|DGG FAA|GBB ABc|
B/c/dg bag|gfe dBG|cE^c dBG|cAF G2:|

